X: 8
T: Sí Beag Sí Mór
R: waltz
M: 3/4
L: 1/8
K: Dmaj
V:1
de |:f2 fe d2|d2 de d2|B4 A2|F4 A2|
V:2
z2|:d4 A2|A2 Bc A2|G4 D2|D6|
V:1
BA Bc d2|e4 de|f2 f2 e2|d4 f2|
V:2
G4 F2|G4 FG|A4 G2|A4 F2|
V:1
B4 e2|A4 d2|F4 E2|D4 f2|
V:2
G4 G2|F4 F2|d2 A4|B4 A2|
V:1
B4 e2|A4 dc|d6|d4 de:|
V:2
G4 G2|D6|F6|A6:|
V:1
|:f2 fe d2|ed ef a2|b4 a2|f4 ed|
V:2
d4 A2|GF GA d2|g4 f2|d6|
V:1
e4 a2|f4 e2|d4 B2|B4 A2|
V:2
A2 c2 e2|d6|G4 G2|G4 F2|
V:1
F4 E2|D4 f2|B4 e2|A4 a2|
V:2
D2 A4|B4 A2|G4 G2|F6|
V:1
ba gf ed|e4 dc|d6|1d4 de:|2d6||
V:2
gf ed cB|A2 G2 E2|F6|1F6|2F6||


Tune 449	Setting 28389

